;FLAVOR:Marlin
;TIME:715
;Filament used: 0.175519m
;Layer height: 0.2
;MINX:92.271
;MINY:92.273
;MINZ:0.2
;MAXX:127.735
;MAXY:127.73
;MAXZ:18
;Generated with Creality Slicer 4.8.2-191
M140 S60
M105
M190 S60
M104 S210
M105
M109 S210
M82 ;absolute extrusion mode

G28 ;Home

G92 E0 ;Reset Extruder
G1 Z2.0 F3000 ;Move Z Axis up
G1 X10.1 Y20 Z0.28 F5000.0 ;Move to start position
G1 X10.1 Y200.0 Z0.28 F1500.0 E15 ;Draw the first line
G1 X10.4 Y200.0 Z0.28 F5000.0 ;Move to side a little
G1 X10.4 Y20 Z0.28 F1500.0 E30 ;Draw the second line
G92 E0 ;Reset Extruder
G1 Z2.0 F3000 ;Move Z Axis up

G92 E0
G92 E0
G1 F2400 E-0.8
;LAYER_COUNT:90
;LAYER:0
M107
G0 F6000 X97.592 Y97.329 Z0.2
;TYPE:SKIRT
G1 F2400 E0
G1 F1200 X98.092 Y96.85 E0.01727
G1 X98.202 Y96.751 E0.02096
G1 X98.826 Y96.23 E0.04124
G1 X99.404 Y95.784 E0.05945
G1 X100.012 Y95.347 E0.07813
G1 X100.476 Y95.038 E0.09204
G1 X101.218 Y94.587 E0.1137
G1 X101.436 Y94.466 E0.11992
G1 X101.964 Y94.191 E0.13477
G1 X102.422 Y93.969 E0.14746
G1 X103.086 Y93.675 E0.16558
G1 X103.611 Y93.463 E0.1797
G1 X104.336 Y93.2 E0.19894
G1 X104.798 Y93.051 E0.21105
G1 X105.501 Y92.85 E0.22929
G1 X105.959 Y92.736 E0.24106
G1 X106.68 Y92.583 E0.25945
G1 X107.137 Y92.502 E0.27103
G1 X107.866 Y92.398 E0.28939
G1 X108.332 Y92.348 E0.30109
G1 X109.068 Y92.295 E0.31949
G1 X109.591 Y92.275 E0.33255
G1 X110.355 Y92.273 E0.35161
G1 X110.811 Y92.288 E0.36299
G1 X111.521 Y92.335 E0.38074
G1 X112.165 Y92.399 E0.39688
G1 X113.02 Y92.518 E0.41842
G1 X113.191 Y92.549 E0.42275
G1 X113.831 Y92.686 E0.43908
G1 X114.435 Y92.834 E0.45459
G1 X115.122 Y93.027 E0.47239
G1 X115.602 Y93.179 E0.48495
G1 X116.334 Y93.44 E0.50434
G1 X116.776 Y93.616 E0.5162
G1 X117.431 Y93.902 E0.53403
G1 X117.852 Y94.103 E0.54567
G1 X118.516 Y94.449 E0.56435
G1 X119.076 Y94.766 E0.5804
G1 X119.708 Y95.153 E0.59889
G1 X119.885 Y95.27 E0.60418
G1 X120.495 Y95.705 E0.62287
G1 X120.927 Y96.036 E0.63644
G1 X121.484 Y96.493 E0.65442
G1 X121.92 Y96.876 E0.66889
G1 X122.487 Y97.411 E0.68834
G1 X122.923 Y97.854 E0.70384
G1 X123.496 Y98.485 E0.72511
G1 X123.616 Y98.628 E0.72976
G1 X124.025 Y99.147 E0.74625
G1 X124.374 Y99.619 E0.76089
G1 X124.761 Y100.179 E0.77787
G1 X125.027 Y100.591 E0.7901
G1 X125.407 Y101.227 E0.80858
G1 X125.715 Y101.785 E0.82448
G1 X126.111 Y102.576 E0.84655
G1 X126.208 Y102.792 E0.85246
G1 X126.44 Y103.352 E0.86758
G1 X126.695 Y104.018 E0.88537
G1 X126.96 Y104.797 E0.90589
G1 X127.018 Y104.992 E0.91097
G1 X127.188 Y105.635 E0.92756
G1 X127.324 Y106.223 E0.94261
G1 X127.469 Y106.97 E0.96159
G1 X127.551 Y107.49 E0.97473
G1 X127.639 Y108.208 E0.99277
G1 X127.682 Y108.689 E1.00482
G1 X127.722 Y109.387 E1.02226
G1 X127.735 Y109.927 E1.03573
G1 X127.725 Y110.706 E1.05516
G1 X127.711 Y110.995 E1.06238
G1 X127.648 Y111.753 E1.08136
G1 X127.563 Y112.463 E1.09919
G1 X127.47 Y113.083 E1.11483
G1 X127.437 Y113.267 E1.1195
G1 X127.254 Y114.099 E1.14075
G1 X127.087 Y114.735 E1.15715
G1 X126.878 Y115.431 E1.17528
G1 X126.725 Y115.886 E1.18725
G1 X126.451 Y116.614 E1.20665
G1 X126.27 Y117.046 E1.21834
G1 X125.982 Y117.675 E1.2356
G1 X125.751 Y118.14 E1.24855
G1 X125.382 Y118.821 E1.26787
G1 X125.081 Y119.331 E1.28264
G1 X124.639 Y120.018 E1.30302
G1 X124.489 Y120.233 E1.30956
G1 X124.096 Y120.761 E1.32598
G1 X123.69 Y121.273 E1.34228
G1 X123.373 Y121.654 E1.35464
G1 X123.238 Y121.809 E1.35977
G1 X122.578 Y122.503 E1.38366
G1 X122.125 Y122.938 E1.39933
G1 X121.555 Y123.447 E1.41839
G1 X121.144 Y123.789 E1.43173
G1 X120.541 Y124.256 E1.45075
G1 X120.143 Y124.542 E1.46298
G1 X119.529 Y124.952 E1.48139
G1 X119.164 Y125.178 E1.4921
G1 X118.53 Y125.541 E1.51033
G1 X118.025 Y125.808 E1.52458
G1 X117.345 Y126.138 E1.54343
G1 X116.958 Y126.309 E1.55399
G1 X116.301 Y126.574 E1.57166
G1 X115.715 Y126.788 E1.58722
G1 X114.831 Y127.068 E1.61035
G1 X114.546 Y127.145 E1.61771
G1 X113.984 Y127.281 E1.63214
G1 X113.393 Y127.407 E1.64721
G1 X112.866 Y127.505 E1.66058
G1 X112.637 Y127.542 E1.66637
G1 X111.704 Y127.652 E1.68981
G1 X111.032 Y127.701 E1.70661
G1 X110.275 Y127.729 E1.72551
G1 X109.837 Y127.73 E1.73644
G1 X109.113 Y127.707 E1.7545
G1 X108.576 Y127.672 E1.76793
G1 X107.809 Y127.595 E1.78716
G1 X107.366 Y127.534 E1.79831
G1 X106.663 Y127.413 E1.81611
G1 X106.163 Y127.31 E1.82884
G1 X105.406 Y127.125 E1.84828
G1 X104.95 Y126.996 E1.8601
G1 X104.271 Y126.78 E1.87788
G1 X103.681 Y126.57 E1.8935
G1 X102.852 Y126.235 E1.9158
G1 X102.598 Y126.12 E1.92276
G1 X102.066 Y125.861 E1.93752
G1 X101.515 Y125.574 E1.95301
G1 X100.973 Y125.272 E1.96849
G1 X100.792 Y125.164 E1.97375
G1 X100.398 Y124.917 E1.98535
G1 X100.296 Y124.85 E1.98839
G1 X99.946 Y124.61 E1.99898
G1 X99.539 Y124.319 E2.01146
G1 X98.967 Y123.881 E2.02943
G1 X98.446 Y123.453 E2.04625
G1 X97.866 Y122.94 E2.06557
G1 X97.706 Y122.788 E2.07107
G1 X97.203 Y122.276 E2.08898
G1 X96.702 Y121.732 E2.10743
G1 X96.134 Y121.063 E2.12932
G1 X95.96 Y120.84 E2.13637
G1 X95.607 Y120.362 E2.1512
G1 X95.345 Y119.985 E2.16265
G1 X94.95 Y119.373 E2.18082
G1 X94.647 Y118.867 E2.19553
G1 X94.265 Y118.171 E2.21533
G1 X94.066 Y117.775 E2.22639
G1 X93.777 Y117.153 E2.2435
G1 X93.573 Y116.673 E2.25651
G1 X93.289 Y115.929 E2.27637
G1 X93.087 Y115.335 E2.29203
G1 X92.847 Y114.525 E2.3131
G1 X92.79 Y114.301 E2.31887
G1 X92.65 Y113.674 E2.33489
G1 X92.553 Y113.168 E2.34774
G1 X92.445 Y112.482 E2.36507
G1 X92.378 Y111.948 E2.37849
G1 X92.31 Y111.193 E2.3974
G1 X92.286 Y110.751 E2.40844
G1 X92.271 Y110.027 E2.42651
G1 X92.278 Y109.495 E2.43978
G1 X92.315 Y108.735 E2.45876
G1 X92.353 Y108.283 E2.47007
G1 X92.441 Y107.546 E2.48859
G1 X92.515 Y107.066 E2.5007
G1 X92.653 Y106.336 E2.51924
G1 X92.763 Y105.849 E2.53169
G1 X92.952 Y105.13 E2.55024
G1 X93.086 Y104.683 E2.56188
G1 X93.322 Y103.983 E2.5803
G1 X93.488 Y103.542 E2.59206
G1 X93.775 Y102.853 E2.61068
G1 X93.993 Y102.377 E2.62374
G1 X94.315 Y101.732 E2.64172
G1 X94.587 Y101.23 E2.65596
G1 X95.014 Y100.511 E2.67682
G1 X95.179 Y100.256 E2.6844
G1 X95.558 Y99.707 E2.70104
G1 X95.943 Y99.186 E2.7172
G1 X96.376 Y98.639 E2.7346
G1 X96.528 Y98.459 E2.74048
G1 X97.05 Y97.884 E2.75985
G1 X97.592 Y97.329 E2.7792
G0 F6000 X97.807 Y97.539
G1 F1200 X98.292 Y97.073 E2.79598
G1 X98.402 Y96.974 E2.79967
G1 X99.009 Y96.468 E2.81939
G1 X99.587 Y96.022 E2.8376
G1 X100.179 Y95.597 E2.85578
G1 X100.643 Y95.288 E2.86968
G1 X101.364 Y94.849 E2.89074
G1 X101.582 Y94.728 E2.89696
G1 X102.095 Y94.461 E2.91139
G1 X102.553 Y94.239 E2.92408
G1 X103.198 Y93.953 E2.94168
G1 X103.723 Y93.741 E2.95581
G1 X104.428 Y93.485 E2.97452
G1 X104.89 Y93.336 E2.98662
G1 X105.574 Y93.141 E3.00437
G1 X106.032 Y93.027 E3.01614
G1 X106.732 Y92.878 E3.03399
G1 X107.189 Y92.797 E3.04557
G1 X107.898 Y92.697 E3.06343
G1 X108.364 Y92.647 E3.07512
G1 X109.08 Y92.595 E3.09303
G1 X109.603 Y92.575 E3.10609
G1 X110.346 Y92.573 E3.12462
G1 X110.802 Y92.588 E3.136
G1 X111.491 Y92.633 E3.15323
G1 X112.135 Y92.697 E3.16937
G1 X112.966 Y92.814 E3.1903
G1 X113.137 Y92.845 E3.19464
G1 X113.76 Y92.977 E3.21052
G1 X114.364 Y93.125 E3.22604
G1 X115.032 Y93.313 E3.24335
G1 X115.512 Y93.465 E3.25591
G1 X116.223 Y93.718 E3.27473
G1 X116.665 Y93.894 E3.2866
G1 X117.301 Y94.173 E3.30392
G1 X117.722 Y94.374 E3.31556
G1 X118.368 Y94.71 E3.33373
G1 X118.928 Y95.027 E3.34978
G1 X119.542 Y95.403 E3.36774
G1 X119.719 Y95.52 E3.37303
G1 X120.313 Y95.943 E3.39122
G1 X120.745 Y96.274 E3.4048
G1 X121.286 Y96.718 E3.42226
G1 X121.722 Y97.101 E3.43673
G1 X122.273 Y97.622 E3.45565
G1 X122.709 Y98.065 E3.47115
G1 X123.266 Y98.678 E3.49181
G1 X123.386 Y98.821 E3.49647
G1 X123.784 Y99.325 E3.51249
G1 X124.133 Y99.797 E3.52713
G1 X124.509 Y100.342 E3.54365
G1 X124.775 Y100.754 E3.55588
G1 X125.145 Y101.372 E3.57385
G1 X125.453 Y101.93 E3.58975
G1 X125.837 Y102.699 E3.61119
G1 X125.934 Y102.915 E3.6171
G1 X126.16 Y103.459 E3.63179
G1 X126.415 Y104.125 E3.64958
G1 X126.672 Y104.883 E3.66955
G1 X126.73 Y105.078 E3.67462
G1 X126.895 Y105.702 E3.69072
G1 X127.031 Y106.29 E3.70578
G1 X127.172 Y107.017 E3.72425
G1 X127.254 Y107.537 E3.73738
G1 X127.34 Y108.235 E3.75493
G1 X127.383 Y108.716 E3.76697
G1 X127.422 Y109.394 E3.78391
G1 X127.435 Y109.934 E3.79739
G1 X127.426 Y110.692 E3.8163
G1 X127.412 Y110.981 E3.82352
G1 X127.35 Y111.717 E3.84194
G1 X127.265 Y112.427 E3.85978
G1 X127.175 Y113.03 E3.87499
G1 X127.142 Y113.214 E3.87965
G1 X126.963 Y114.023 E3.90032
G1 X126.796 Y114.659 E3.91672
G1 X126.594 Y115.336 E3.93434
G1 X126.441 Y115.791 E3.94632
G1 X126.174 Y116.498 E3.96517
G1 X125.993 Y116.93 E3.97686
G1 X125.714 Y117.541 E3.99361
G1 X125.483 Y118.006 E4.00656
G1 X125.123 Y118.668 E4.02536
G1 X124.822 Y119.178 E4.04013
G1 X124.393 Y119.846 E4.05994
G1 X124.243 Y120.061 E4.06648
G1 X123.861 Y120.575 E4.08245
G1 X123.455 Y121.087 E4.09875
G1 X123.147 Y121.457 E4.11076
G1 X123.012 Y121.612 E4.11589
G1 X122.37 Y122.286 E4.13911
G1 X121.917 Y122.721 E4.15477
G1 X121.363 Y123.217 E4.17332
G1 X120.952 Y123.559 E4.18666
G1 X120.366 Y124.012 E4.20514
G1 X119.968 Y124.298 E4.21736
G1 X119.371 Y124.697 E4.23527
G1 X119.006 Y124.923 E4.24598
G1 X118.389 Y125.276 E4.26371
G1 X117.884 Y125.543 E4.27796
G1 X117.224 Y125.863 E4.29626
G1 X116.837 Y126.034 E4.30682
G1 X116.198 Y126.292 E4.32401
G1 X115.612 Y126.506 E4.33957
G1 X114.753 Y126.778 E4.36204
G1 X114.468 Y126.855 E4.36941
G1 X113.921 Y126.987 E4.38345
G1 X113.33 Y127.113 E4.39852
G1 X112.818 Y127.209 E4.41151
G1 X112.589 Y127.246 E4.4173
G1 X111.682 Y127.352 E4.44008
G1 X111.01 Y127.401 E4.45689
G1 X110.274 Y127.429 E4.47526
G1 X109.836 Y127.43 E4.48619
G1 X109.132 Y127.408 E4.50376
G1 X108.595 Y127.373 E4.51718
G1 X107.85 Y127.297 E4.53586
G1 X107.407 Y127.236 E4.54701
G1 X106.724 Y127.119 E4.5643
G1 X106.224 Y127.016 E4.57704
G1 X105.487 Y126.836 E4.59596
G1 X105.031 Y126.707 E4.60778
G1 X104.372 Y126.497 E4.62503
G1 X103.782 Y126.287 E4.64066
G1 X102.976 Y125.962 E4.66234
G1 X102.722 Y125.847 E4.66929
G1 X102.205 Y125.595 E4.68364
G1 X101.654 Y125.308 E4.69914
G1 X101.126 Y125.014 E4.71421
G1 X100.945 Y124.906 E4.71947
G1 X100.563 Y124.666 E4.73072
G1 X100.461 Y124.599 E4.73377
G1 X100.12 Y124.366 E4.74407
G1 X99.713 Y124.075 E4.75655
G1 X99.158 Y123.649 E4.774
G1 X98.637 Y123.221 E4.79082
G1 X98.073 Y122.722 E4.80961
G1 X97.913 Y122.57 E4.81511
G1 X97.423 Y122.073 E4.83252
G1 X96.922 Y121.529 E4.85097
G1 X96.37 Y120.878 E4.87226
G1 X96.196 Y120.655 E4.87932
G1 X95.854 Y120.191 E4.8937
G1 X95.592 Y119.814 E4.90515
G1 X95.208 Y119.219 E4.92281
G1 X94.905 Y118.713 E4.93753
G1 X94.533 Y118.036 E4.95679
G1 X94.334 Y117.64 E4.96785
G1 X94.054 Y117.035 E4.98448
G1 X93.85 Y116.555 E4.99749
G1 X93.573 Y115.832 E5.0168
G1 X93.371 Y115.238 E5.03245
G1 X93.138 Y114.451 E5.05293
G1 X93.081 Y114.227 E5.05869
G1 X92.945 Y113.617 E5.07428
G1 X92.848 Y113.111 E5.08714
G1 X92.742 Y112.445 E5.10396
G1 X92.675 Y111.911 E5.11738
G1 X92.609 Y111.177 E5.13577
G1 X92.585 Y110.735 E5.14681
G1 X92.571 Y110.031 E5.16437
G1 X92.578 Y109.499 E5.17765
G1 X92.614 Y108.761 E5.19608
G1 X92.652 Y108.309 E5.20739
G1 X92.737 Y107.592 E5.2254
G1 X92.811 Y107.112 E5.23752
G1 X92.946 Y106.402 E5.25555
G1 X93.056 Y105.915 E5.268
G1 X93.239 Y105.216 E5.28603
G1 X93.373 Y104.769 E5.29767
G1 X93.603 Y104.089 E5.31557
G1 X93.769 Y103.648 E5.32733
G1 X94.048 Y102.978 E5.34543
G1 X94.266 Y102.502 E5.35849
G1 X94.579 Y101.875 E5.37597
G1 X94.851 Y101.373 E5.39022
G1 X95.265 Y100.674 E5.41048
G1 X95.43 Y100.419 E5.41806
G1 X95.8 Y99.886 E5.43424
G1 X96.185 Y99.365 E5.4504
G1 X96.605 Y98.833 E5.46731
G1 X96.757 Y98.653 E5.47319
G1 X97.265 Y98.094 E5.49203
G1 X97.807 Y97.539 E5.51138
G0 F6000 X98.021 Y97.748
G1 F1200 X98.493 Y97.296 E5.52768
G1 X98.603 Y97.197 E5.53137
G1 X99.192 Y96.705 E5.55052
G1 X99.77 Y96.259 E5.56873
G1 X100.345 Y95.847 E5.58638
G1 X100.809 Y95.538 E5.60028
G1 X101.509 Y95.111 E5.62074
G1 X101.727 Y94.99 E5.62696
G1 X102.226 Y94.731 E5.64098
G1 X102.684 Y94.509 E5.65368
G1 X103.31 Y94.231 E5.67076
G1 X103.835 Y94.019 E5.68489
G1 X104.521 Y93.771 E5.70308
G1 X104.983 Y93.622 E5.71519
G1 X105.646 Y93.433 E5.73239
G1 X106.104 Y93.319 E5.74416
G1 X106.785 Y93.174 E5.76153
G1 X107.242 Y93.093 E5.77311
G1 X107.93 Y92.995 E5.79044
G1 X108.396 Y92.945 E5.80213
G1 X109.091 Y92.894 E5.81952
G1 X109.614 Y92.874 E5.83257
G1 X110.336 Y92.872 E5.85058
G1 X110.792 Y92.887 E5.86197
G1 X111.462 Y92.932 E5.87872
G1 X112.106 Y92.996 E5.89486
G1 X112.913 Y93.109 E5.91519
G1 X113.084 Y93.14 E5.91952
G1 X113.689 Y93.269 E5.93495
G1 X114.293 Y93.417 E5.95047
G1 X114.941 Y93.599 E5.96726
G1 X115.421 Y93.751 E5.97982
G1 X116.112 Y93.997 E5.99811
G1 X116.554 Y94.173 E6.00998
G1 X117.172 Y94.443 E6.0268
G1 X117.593 Y94.644 E6.03844
G1 X118.22 Y94.971 E6.05608
G1 X118.78 Y95.288 E6.07213
G1 X119.377 Y95.654 E6.0896
G1 X119.554 Y95.771 E6.09489
G1 X120.13 Y96.181 E6.11253
G1 X120.562 Y96.512 E6.12611
G1 X121.088 Y96.943 E6.14307
G1 X121.524 Y97.326 E6.15755
G1 X122.059 Y97.832 E6.17591
G1 X122.495 Y98.275 E6.19142
G1 X123.036 Y98.87 E6.21148
G1 X123.156 Y99.013 E6.21614
G1 X123.542 Y99.503 E6.2317
G1 X123.891 Y99.975 E6.24634
G1 X124.257 Y100.505 E6.26241
G1 X124.523 Y100.917 E6.27464
G1 X124.882 Y101.517 E6.29208
G1 X125.19 Y102.075 E6.30798
G1 X125.563 Y102.822 E6.32881
G1 X125.66 Y103.038 E6.33472
G1 X125.88 Y103.567 E6.34901
G1 X126.135 Y104.233 E6.3668
G1 X126.385 Y104.968 E6.38616
G1 X126.443 Y105.163 E6.39124
G1 X126.603 Y105.77 E6.4069
G1 X126.739 Y106.358 E6.42195
G1 X126.876 Y107.064 E6.43989
G1 X126.958 Y107.584 E6.45302
G1 X127.042 Y108.261 E6.47004
G1 X127.085 Y108.742 E6.48209
G1 X127.122 Y109.402 E6.49858
G1 X127.135 Y109.942 E6.51205
G1 X127.126 Y110.677 E6.53039
G1 X127.112 Y110.966 E6.5376
G1 X127.052 Y111.682 E6.55553
G1 X126.967 Y112.392 E6.57336
G1 X126.88 Y112.977 E6.58812
G1 X126.847 Y113.161 E6.59278
G1 X126.673 Y113.947 E6.61286
G1 X126.506 Y114.583 E6.62927
G1 X126.31 Y115.24 E6.64637
G1 X126.157 Y115.695 E6.65834
G1 X125.898 Y116.382 E6.67666
G1 X125.717 Y116.814 E6.68834
G1 X125.445 Y117.408 E6.70464
G1 X125.214 Y117.873 E6.71759
G1 X124.865 Y118.516 E6.73584
G1 X124.564 Y119.026 E6.75061
G1 X124.147 Y119.675 E6.76986
G1 X123.997 Y119.89 E6.7764
G1 X123.626 Y120.388 E6.79189
G1 X123.22 Y120.9 E6.80819
G1 X122.921 Y121.26 E6.81986
G1 X122.786 Y121.415 E6.82499
G1 X122.162 Y122.07 E6.84755
G1 X121.709 Y122.505 E6.86322
G1 X121.171 Y122.986 E6.88122
G1 X120.76 Y123.328 E6.89456
G1 X120.191 Y123.769 E6.91252
G1 X119.793 Y124.055 E6.92474
G1 X119.213 Y124.442 E6.94214
G1 X118.848 Y124.668 E6.95285
G1 X118.249 Y125.011 E6.97006
G1 X117.744 Y125.278 E6.98431
G1 X117.102 Y125.589 E7.00211
G1 X116.715 Y125.76 E7.01266
G1 X116.095 Y126.01 E7.02934
G1 X115.509 Y126.224 E7.0449
G1 X114.674 Y126.489 E7.06675
G1 X114.389 Y126.566 E7.07412
G1 X113.858 Y126.694 E7.08774
G1 X113.267 Y126.82 E7.10282
G1 X112.77 Y126.913 E7.11543
G1 X112.541 Y126.95 E7.12122
G1 X111.66 Y127.053 E7.14334
G1 X110.988 Y127.102 E7.16015
G1 X110.273 Y127.129 E7.178
G1 X109.835 Y127.13 E7.18893
G1 X109.152 Y127.109 E7.20597
G1 X108.615 Y127.074 E7.2194
G1 X107.89 Y127 E7.23757
G1 X107.447 Y126.939 E7.24873
G1 X106.784 Y126.825 E7.26551
G1 X106.284 Y126.722 E7.27825
G1 X105.569 Y126.548 E7.2966
G1 X105.113 Y126.419 E7.30842
G1 X104.472 Y126.214 E7.32521
G1 X103.882 Y126.004 E7.34083
G1 X103.1 Y125.688 E7.36187
G1 X102.846 Y125.573 E7.36883
G1 X102.343 Y125.329 E7.38277
G1 X101.792 Y125.042 E7.39827
G1 X101.28 Y124.756 E7.4129
G1 X101.099 Y124.648 E7.41816
G1 X100.728 Y124.416 E7.42907
G1 X100.626 Y124.349 E7.43212
G1 X100.295 Y124.122 E7.44213
G1 X99.888 Y123.831 E7.45461
G1 X99.348 Y123.417 E7.47158
